X:7252
T:The Rakes of Kildare
O:england
M:6/8
L:1/8
Q:200
C:Trad
R:jig
K:A Dorian
G|EAA A^GA|Bcd e2 f|gfg ege|dBA G3|
EAA A^GA|Bcd e2 f|gfe dBG|A3 A2:|
a|aea aea|aea b2 a|gfg ege|dBA G2 a|
aea aea|aea b2 a|gfe dBG|A3 A2 a|
aea aea|aea b2 a|gfg ege|dBA G3|
EAA A^GA|Bcd e2 f|gfe dBG|A3 A2||


